X:1
T:Hugo Distler
T:Totentanz
%%score 1 ( 2 3 ) ( 4 5 ) ( 6 7 )
L:1/8
Q:1/4=69
M:4/4
K:C
V:1 treble nm="Sopraan" snm="Sop."
V:2 treble nm="Alt" snm="A."
V:3 treble 
V:4 treble-8 nm="Tenor" snm="T."
V:5 treble-8 
V:6 bass nm="Bas" snm="Bs."
V:7 bass 
V:1
 B2 G2 G4 | ^FE F2 e2 B2 | B4 g2 c2 | c4 dB e2- | e2[Q:1/4=88] e4 dB | d e2 d- dBde- | %6
w: ~ * *||||||
 e/d/B AG A4 | ^G2 A2[Q:1/4=69] A2 FF | F4 e2 BB | B4 g2 cc | c3 g ^f2 eg | ^f e2 d c4 | %12
w: ||||||
 ^f2 (3f/4B/4-B-B- B4- | B2[Q:1/4=88] e4 dB | d e2 d- dBde- | edBd e>d Bc- | c B2 A A4 | %17
w: |||||
[M:6/4] ^G2 A2[Q:1/4=92] e2 d2 d2 B2 |[M:4/4] A2 g^f- (3fed (3BAG | %19
w: ||
 (3:2:2E2 G (3:2:2A2 G (3BGB (3:2:2A2 B | A/B/A/B/[Q:1/4=69] e6 | z4[Q:1/4=63] c2 c2- | c4 c2 c2 | %23
w: ||||
 c2 c2- cc c2 |[M:3/4] [cd]2 [ce]4- | [ce]2 z2 z2 |[M:4/4] z8[Q:1/4=88] | z8 |[M:3/4] z6 | %29
w: ||||||
[M:4/4] z8 | z2 z[Q:1/4=104] A d>d cA |[M:3/4] d2 z A d>d | cA d2 z A | d2 z B e2 | z B e>e ee | %35
w: ||||||
[M:6/4] e^c^ff[Q:1/4=88] ^F2- F6 |[M:4/4] z8 |[M:3/4] z6 | z6 |[M:9/8] z9 | %40
w: |||||
[M:6/4] z6[Q:1/4=84] A4 A2 |[M:4/4] A2 G2 z EGA- | AA (3BGB A A2 G- | GA d6- | d2 z2 z4 | %45
w: |||||
 z4 A3 A[Q:1/4=80] | A2 G2 E2 A2 | G2 A2 B2 d2- | d2 e2 B3 A | EA B2- BAEA |[M:3/4] B4 z B | %51
w: ||||||
 eB d2 z2 |[M:4/4] B2 d4 z2 | B2 d6- | d2 z2 z4 | z8 | z8 | z8 | z2[Q:1/4=63] d2 B2 B2 | %59
w: ||||||||
 BBde B>B A^F |[M:3/4] B2 ^cc e^f |[M:4/4] ^c>c B^G c>c BG | B>^c dc- c B2 _B | B2 d2 B2 B2- | %64
w: |||||
 B2 d2 B2 B2- |[M:3/4] B6 |[M:6/4] z6 ^c2 c3 c |[M:3/4] d2 d2 ^c2- |[M:4/4] c8- | %69
w: |||||
[M:5/4] c2- c2- c6- |[M:4/4] c8- | c4 z4 | z4[Q:1/4=76] z2 B2 | d2 B2 AG B2- | Bded- d/B/A GA | %75
w: ||||||
 E8[Q:1/4=126] | z EFE c2 c2 |[M:3/4] BE FE c2 | c2 BB c2 | B3 B cc | B3 B c2 | BB dd ^cc | %82
w: |||||||
 _e2 f2 g2 |[M:4/4] z4[Q:1/4=76] z2 B2 | d2 B2 AG B2- | Bded- d/B/A GA | E8- | E4 z4 | %88
w: ||||||
[M:3/4] z2 z2[Q:1/4=192] G2 | B3 ^c d2- | d2 e2 d2- | d^c Bc de | d3 ^c B2 | B2 A2 G2 | %94
w: ||||||
[M:2/2] A2 A2 F4 | E2 D4 C2 | D3 E FE G2- | G2 F2 E4 |[M:3/4] D4 A2 | ^c3 d e2- | e2 d2 ^f2 | %101
w: |||||||
 d2 e4 | d2 ^f3 e | d2 e4 | d2 ^c2 c2 |[M:3/2] B2[Q:1/4=160] B2- BB B2 B2 A2 |[M:2/2] cBAG ^F2 F2 | %107
w: ||||||
 .E4 z4 | z8 | z8 |[Q:1/4=216] d4 B3 c | d2 AG AB c2 |[M:3/4] B3 A G2 |[M:2/2] A2 A2 G2 G2 | %114
w: |||||||
[M:3/2] c4 z2 A2 d4 |[M:2/2] f4 e4 | c4 z4 | f4 e4 | d2 c2- c_B A2 | G2 EF GE A2- | A2 G4 EF | %121
w: |||||||
 GE A4 G2- | GG A4 G2- | G2 A2 G2 A2- | AG F2 E2 D2- | D2 C2 D4- |[M:3/1] D4 G8 F8 D4- | %127
w: ||||||
[M:6/2] D4 F4 G4 _E4 F8 | D4 F4 G4 _E4 F8 |[M:4/1] D4 _B,12- B,4 C8 D4- |[M:3/1] D4 _E12 D4 C4 | %131
w: ||||
[M:2/1] _B,4 C12- | C4 B,12- | B,4 z4 z8 |[M:4/4] z4[Q:1/4=56] A2 c2 |[M:5/4] A2 G2 A2 EA c2 | %136
w: |||||
[M:4/4] A2 G2 A2 d2 | d2 A2 A_B- B/A/G |[M:3/2] FD _B,2 B,2[Q:1/4=112] D4 F2 | G2 _B2 G2 F2 G2 B2 | %140
w: ||||
[M:2/2] A3 G F2 G2 | G4 G2 ^G2- | G2 _B4 =G2- | G8- | G8- | G8 |[M:3/4] z6 |[Q:1/4=88] A2 e4 | %148
w: ||||||||
 d2 g4 | e4 d2 |[M:4/4] B2 A2 A4 | A2 A4 A2 |[M:6/4] A4 AA AG A2 AA |[M:3/4] AG A2 A2 | %154
w: ||||||
[M:4/4] d2 G2 AAcA | G3 _E GAdc | (3AG_E _B4 A2- | A2[Q:1/4=76] z2 z4 | z8 | z4 z2 A2 | e4 d2 g2- | %161
w: |||||||
 g2 e4 d2 |[M:6/4] B2 A4- A6- | A6 z6 | z2[Q:1/4=126] A4 A2 A2 A2 |[M:4/4] ^F2 A2 F2 A2 | %166
w: |||||
 B2 e2- e^c e2 | ^f4 e2 ^c2 | e2 ^f2 e4 |[M:3/4] ^c2 B3 A |[M:4/4] B^c A2- A^G ^F2 | %171
w: |||||
[M:6/4] E2 ^F4 .A6 |[M:4/4] A2[Q:1/4=132] A2 A2 A2 | F2 A2 B2 e2 | B3 e BA F2- | FA B2 B2 B2 | %176
w: |||||
 A2 c2 B4 | c2 Bc B3 c | B3 c BcBA | B4 e2 B2- | B8- | B2 B6- | B2 z2 z4 |[M:2/4] z4[Q:1/4=112] | %184
w: ||||||||
 z A e2 | z A e2 | z B ^f2 |[M:4/4] z B ^f6- |[M:3/4] f4 z2 |[M:4/4] ^f2 _e2 ^c2 ^G2 | ^c2 ^f4 z2 | %191
w: |||||||
[M:6/4] ^c2 ^G2 c2 ^f2[Q:1/4=132] f4 |[M:4/4] e3 ^f ef e2 | z2 z ^c Bc B2 | z ^FEF E2 z ^C | %195
w: ||||
[M:6/4] B,^C B,2[Q:1/4=108] B,2- B,2 B,4 | B,2 D4 C3 CEC | D3 E F2 EC D4 | C2 D4- D6- | D6 z6 | %200
w: |||||
 z12[Q:1/4=76] | z6 A4 A2 |[M:4/4] A2 ^F2 A2 E2- | ED ^F2 F2 ^C2 |[M:6/4] B,2 A4 z6 | %205
w: |||||
[M:4/4] z4 B2 A2- | AA ^F2 A2 B2 |[M:6/4] ^F2 A2 B2 e ^c2 B ^G2- |[M:4/4] G2 ^F6- | F2 z2 z4 | %210
w: |||||
[M:5/4] z2[Q:1/4=100] A2 c4 c2 |[M:6/4] A2 c2 G2 F2 A2 A2 |[M:4/4] E2 D2 c3 d | cd c2- cdfd | %214
w: ||||
 c A2 c d2 d2 |[M:3/4] c2 A2 (3:2:2d2 d |[M:4/4] dAcd g e2 d | B2 d2 d3 e | d3 e de d2- | d4 z4 | %220
w: ||||||
 z4[Q:1/4=72] E2 E2- |[M:5/4] E2 E2 E3 E E2 |[M:4/4] C2 E2 E2 G2 | ^FD E2 E2 E2 | E2 E2 C2 E2- | %225
w: |||||
[M:5/4] E2 E2 E2 ^F G2 F |[M:4/4] D^FEE E4 | E2 D2 C2 E2- | E8- |[M:3/4] E6 |[Q:1/4=120] z2 BB AG | %231
w: ||||||
 EG A3 A | F4 G2- | G2 F2 F2 | E2 dd cA | G2 dd cA |[M:4/4] GA c2 ddcA | GA c2 eedc | Ac d2 ^ffed | %239
w: ||||||||
 Bd e2 ^ffed |[M:2/4] e2 ed | e2 ed |[M:4/4] e2 ed e2[Q:1/4=72] E2 | E4 E2 E2- | %244
w: |||||
[M:5/4] EE E2 C2 E2 E2 |[M:4/4] G2 ^FD E4- | E8 | z2[Q:1/4=88] E4 E2- | E2 ^F2 B2 ^G2 | %249
w: |||||
 ^F2 F2 F2 F2 | B2 B2 ^F2 F2 |[M:5/4] B3 ^cAc B2 ^G2 |[M:6/4] ^C4 =C2- C2 C2 D2 | %253
w: ||||
[M:4/4] G2 E2 D2 E2 | G2 E2 D2 E2 | A3 G AB e2- | e d2 B AGEG | A3 G A3 G | BG A6 |] %259
w: ||||||
V:2
 z4 E2 C2 | C4 B,A, B,2 | G2 ^F2 E4 | B2 A2 G4 | A^F [^GB]2 =G2 =FE | F G2 F- FEFG- | G/F/E DC D4 | %7
w: les,~ *|was~ la�~ * al|les,~ * la�~|les,~ * was~|* * hauf~ * da�~ du~|al * * * * * *||
 B,2 E4 z2 | E2 B,B, B,4 | ^F2 AG F3 F | AG^FF A2 B2- | BGAB- B/A/G ^FE | CE A6 | %13
w: les~ nehmst!~|Welt,~ * * ver|Welt,~ * * ver die~|Welt,~ * * ver schm�h,~ *|schm�h~ * * * * * * * *|die~ * *|
 (3:2:2^G2 ^F G2 =G2 =FE | F G2 F- FEFG- | GFEF G>F EF- | F E2 D D4 |[M:6/4] B,2 E4- E6- | %18
w: * * da�~ * du~ sie~|tau * * * * * *||* * send fach~|be k�mmst!~ *|
[M:4/4] E8- | E8- | E4 D2 B,2 | D2 EE E2 z2 | G2 G4 G2 | G2 G2 E3 D |[M:3/4] A,2 E4- | E2 z2 z2 | %26
w: |||* * * Wohl~|* * dem,~|wohl~ dem,~ * *|be tracht!~||
[M:4/4] z2 D4 D2 | D2 C2 A,2 D2 |[M:3/4] E2 A2 G2- |[M:4/4] GAGF- F/D/C/_B,/ B,B,- | %30
w: ||||
 B,^G, D2 z D G>G |[M:3/4] FD G2 z D | G>G FD G2 | z D G2 z E | A^F B>B BA |[M:6/4] AABd A2 D4 D2 | %36
w: * * * * dann~ *|viel,~ * * *|dann~ * viel,~ * *||* was~ tross'st~ du~ dann~ auf~|ih re~ Herr lich keit?~ * *|
[M:4/4] D2 C2 A,2 D2 |[M:3/4] E2 A2 G2- | GA (3FAG (3AFA |[M:9/8] z2 G z3 z3 |[M:6/4] z12 | %41
w: |||||
[M:4/4] z8 | z8 | z8 | z8 | z8 | D3 D D2 C2 | A,2 D2 E2 B2- | BA G2 E4 | D2 B,D E3 D | %50
w: |||||willst~ * des wegs~|ins~ ew' ge~ Le|* * ben~ gehn,~||
[M:3/4] B,D E4- | E2 z B, EB, |[M:4/4] D2 z2 B,2 D2- | D2 z2 B,2 D2- | DB, D2 E3 C | D2 CB, A,4 | %56
w: ||und~ * *||||
 G,2 A,6- | A,2 z2 z4 | z2 A2 ^F2 F2- | F2 A2 ^F2 F2 |[M:3/4] ^FF AB F>F | %61
w: ||O~ S�n der,~|* wohl~ d�chtst~ fur|Nun,~ * mann~ du~ wohl~ *|
[M:4/4] E^C ^F>F EC =F>F | E^C F>E DE C2 | B,2 A2 ^F2 F2 | ^FFAB FFFE |[M:3/4] ^F2 EG FE | %66
w: d�chtst~ * fur * Nun,~ * fur *|Nun,~ * * * * * *|* o~ S�n der,~|* * o~ * S�n * der!~ *||
[M:6/4] (3^FGF (3AGF FE F3 E F2- |[M:3/4] (3FE^F (3EFE F2- |[M:4/4] F^CCE C2 CC | %69
w: * * * * * * * * Und~ * *|E * * wig * * keit!~||
[M:5/4] E2 ^F3 E ^C2 B,2 |[M:4/4] ^C2 C2 C4- | C4 z4 | z4 z2 E2 | ^F2 F2 EEFE | G2 EG ^F>E DE- | %75
w: |||Dein~|be ster~ Freund,~ dein~ Leib,~ *||
 E/D/C B,A, B,4 | z A,B,A, F2 F2 |[M:3/4] EB, CB, G2 | G2 ^FF G2 | ^F3 F GG | ^F3 F G2 | %81
w: |der~ ist~ dein~ �rg ster~|feind,~ der~ ist~ dein~ �rg|ster~ feind,~ er~ bind't~|* und~ h�lt~ dich~|auf,~ er~ bind't~|
 ^FF AA ^GG | _B2 c2 =B2 |[M:4/4] z4 z2 E2 | ^F2 F2 EEFE | G2 EG ^F>E DE- | E/D/C B,A, B,4- | %87
w: * und~ h�lt~ dich~ auf,~ und~|h�lt~ dich~ auf:~|dein~|be ster~ Freund,~ so~ gut~ *|* * * * * im mer~|meint!~ * * * * *|
 B,4 z4 |[M:3/4] z2 z2 E2 | ^F3 ^G A2 | A2 B2 A2- | A^G ^FG AB | A3 ^G ^F2 | ^F2 E2 D2 | %94
w: |Der~|Rei * *||||che~ die ser~|
[M:2/2] E6 D2 | C2 B,2 A,2 G,2 | A,6 D2 | C2 B,2 A,2 G,2 |[M:3/4] A,6 | z2 z2 E2 | G3 A B2- | %101
w: Welt,~ *|er~ f�r~ * Ge|winn,~ *|||||
 B2 A3 G | ^F2 E2 F2- | F2 B2 A2 | G2 ^F2 E2 |[M:3/2] _E2 ^F2- FF F2 =E2 G2 |[M:2/2] ^FFED C2 F2 | %107
w: |||che~ die ser~|Welt,~ da�~ * er~ mu�~ mit~ Der|lust~ von~ sei nem~ Reich tum~|
 .B,4 z4 | z8 | z8 | z4 G4 | D3 E F2 CB, |[M:3/4] CD E3 E |[M:2/2] E2 G2 D4 | %114
w: ziehn?~|||strei|||ist~ nicht~ g'nug,~|
[M:3/2] z2 G>A B4 z2 A>B |[M:2/2] c4 z4 | F4 E4 | C4 z4 | F4 E4 | C4 z4 | F4 E4 | C4 F4 | E4 C4 | %123
w: |du~|auch,~ *|du~|auch~ *|win||||
 F4 E4 | D2 C2- C_B, A,2 | G,4 A,4- |[M:3/1] A,4 D12 D4 D4- |[M:6/2] D4 C8 _B,4 D8 | D4 D8 C4 D8 | %129
w: ||* den,~|* wo~ * willst~|* ew' ge~ Ruh~|und~ ew' gen~ Frie|
[M:4/1] C4 _B,12- B,16- |[M:3/1] B,24- |[M:2/1] B,4 A,12- | A,4 G,12- | G,4 z4 z8 | %134
w: den~ fin *|||* den!~||
[M:4/4] z4 z2 z A, |[M:5/4] C2 CD- D/C/_B, A,4 |[M:4/4] z C D2 FG- G/A/G | DA E2 G D2 C- | %138
w: |ist~ dei * ne~ * * See,~|* Got tes~ * Geist,~ * *|das~ * Schiff~ dein~ Leib,~ *|
[M:3/2] C/_B,/A, G,2 G,2 B,6 | C2 D4 _B,6- |[M:2/2] B,2 C4 G,2- | G,6 _E2- | E2 ^C4 F2- | %143
w: * * * * die~ Seel~||* * ist's,~|* Hau|* se~ reist.~|
 F4 G2 F2- | F2 C4 D2- | D8 |[M:3/4] z6 | A2 B4 | A2 d4 | B4 A2 |[M:4/4] ^F2 E4 =F2- | F2 G2 E4 | %152
w: ||||Das~ �|ber lich||te~ Licht,~ *|* schaut~ *|
[M:6/4] F2 D4 E2 F2 G2 |[M:3/4] F2 E2 D2 |[M:4/4] C2 D2 EEGE | D3 _B, DEAG | %156
w: schaut~ * die Le ben,~|die Le ben~|nicht~ an * * * *||
 (3ED_B, FE- (7:8:6E/F3/4E/4-E3/4E3/4F/ | E(3:2:2D/C D4 D2 | C2 D4 D2 | C2 D4 D2 | D2 D2 D2 D2 | %161
w: |||* * ...das~|� * ber lich|
 D2 C2 B,2 A,2 |[M:6/4] G,2 A,3 C D4 CB, | .A,6 z6 | z2 ^F4 F2 F2 E2 |[M:4/4] D2 E2 D2 E2- | %166
w: |te~ Licht...~ * * * *||Freund,~ wer~ in~ je|ner~ Welt~ will~ lau|
 E^F G2- GF G2 | A4 G2 ^F2 | G2 A2 G4 |[M:3/4] ^F4 F2 |[M:4/4] E3 D E2 ^F2- |[M:6/4] F6 .E6 | %172
w: ter~ * Ro * * *|||sen~ *||* chen,~|
[M:4/4] E2 E2 E2 E2 | C2 E2 E2 F2 | E3 F ED E2- | EFED EE F2 | F2 F2 E4 | F2 EF E3 F | E3 F EFED | %179
w: den~ m�s sen~ z'vor~|all hier~ die~ Dor||* * * * nen~ * g'nug|sam~ ste *|||
 E4 F4 | E2 D2 E4 | [FA]2 E6- | E2 z2 z4 |[M:2/4] z2 z D | A2 z D | A2 z E | B2 z E | %187
w: ||* chen.~||||||
[M:4/4] B2 z ^F ^cFcc- |[M:3/4] c^F ^cc c2 |[M:4/4] ^c2 _B2 ^G2 _E2 | ^G2 ^c4 z2 | %191
w: ||Man~ geht~ nicht~ mit~|ihm~ ein,~|
[M:6/4] ^G2 _E2 G2 ^c2 c4 |[M:4/4] B3 ^c Bc B2 | z2 z A GA G2 | z ^CB,C B,2 z A, | %195
w: nicht~ mit~ ihm~ ein,~ wo~|man~ des~ Au gen blicks,~|des~ Au gen blicks,~|des~ Au gen blicks,~ des~|
[M:6/4] G,A, G,2 G,2- G,2 G,4 | G,2 A,4 C3 B,A,G, | A,2 A,2 C2- CB, A,2 A,2- | A,2 A,4- A,6- | %199
w: Au gen blicks~ nicht~ * kann~|be rei * * * *||tet~ sein.~ *|
 A,6 z6 | z12 | z6 D4 D2 |[M:4/4] D2 D2 D2 C2- | CD E2 ^F2 E2 |[M:6/4] D2 E4 z6 | %205
w: ||Mensch,~ wenn~|dir~ auf~ der~ Welt~|* zu~ lang~ wird~ Weil~|und~ Zeit,~|
[M:4/4] z4 ^F2 E2- | EE ^C2 E2 ^F2 |[M:6/4] ^C2 E2 ^F2 B ^G2 F _E2- |[M:4/4] E2 ^C6- | C2 z2 z4 | %210
w: so~ kehr~|* dich~ nur~ zu~ Gott~|ins~ Nun~ der~ E * * wig|* keit.~||
[M:5/4] z2 C2 G4 A2 |[M:6/4] G2 F2 D2 C2 E2 E2 |[M:4/4] D2 A,2 E3 D | EG A2- AGAG | ED E2 ^F2 F2 | %215
w: Die~ See le,~|wel che~ hier~ noch~ klei ner~|ist~ als~ klein,~ *||* * * * wird~|
[M:3/4] E2 D2 (3:2:2A2 B |[M:4/4] ^FFGA B A2 F | E2 D2 ^F3 B | ^F3 B FE F2- | F4 z4 | z8 | %221
w: in~ dem~ Him mel|reich~ der~ sch�n ste~ En * *|* gel~ sein.~ *||||
[M:5/4] B,2 C4 B,2 B,2- |[M:4/4] B,B, B,2 A,2 B,2 | B,2 C2 D2 B,2- | B,2 B,2 B,4 | %225
w: * le,~ * ist~|* * born~ zur~ E|* keit,~ hat~ kei|* wah re~|
[M:5/4] B,2 G,2 A,2 C4 |[M:4/4] D2 B,2 B,B, C2 | C2 B,2 B,2 B,2 | B,2 A,2 ^F,2 B,2- | %229
w: * kei ne~ Ruh~|* * Din * *|gen~ die ser~ Zeit.~||
[M:3/4] B,B, CD B,A, | B,6 | z2 EE DC | A,C D3 D | _B,4 A,2- | A,2 A,2 G,2 | D2 AA GF | %236
w: ||* * * in~|Din * * *|* ser~|Zeit,~ kei wah|Ruh,~ kei ne~ wah re~|
[M:4/4] DF G2 AAGF | DF G2 BBAG | EG A2 ^ccBA | ^FA B2 ^ccBA |[M:2/4] B2 BA | B2 BA | %242
w: Ruh,~ * * kei ne~ wah re~|Ruh,~ * * kei ne~ wah re~|Ruh,~ * * kei ne~ wah re~|Ruh,~ * * kei ne~ wah re~|Ruh,~ kei ne~|Ruh,~ kei ne~|
[M:4/4] B2 BA B4 | z2 B,2 C4 |[M:5/4] B,2 B,3 B, B,2 A,2 |[M:4/4] B,2 B,2 C3 B, | A,2 G,2 A,4 | %247
w: Ruh,~ kei ne~ Ruh,~|* le,~|* ist~ * born~ zur~|E * keit.~ *||
 B,4 B,4 | B,2 B,2 ^C2 _E2 | ^C2 B,2 B,2 B,2 | ^C2 _E2 C4 |[M:5/4] B,2 ^C3 E C2 B,2 | %252
w: |* ver wun der|lich,~ da�~ du~ die~|Welt~ so~ liebst,~|Welt~ * * * so~|
[M:6/4] ^G,4 A,2- A,2 A,2 A,2 |[M:4/4] C2 C2 C2 A,2 | C2 C2 C2 A,2 | %255
w: liebst~ und~ * aufs~ Ver|g�ng li che~ dich~|all zu sehr~ be|
 B,-[B,-G] [B,E]2- [B,-E][B,-G][B,-E][B,-D] | [B,E]8 | z8 | z8 |] %259
w: gibst.~ * * * * * *||||
V:3
 x8 | x8 | x8 | x8 | x8 | x8 | x8 | x8 | x8 | x8 | x8 | x8 | x8 | x8 | x8 | x8 | x8 |[M:6/4] x12 | %18
[M:4/4] x8 | x8 | x8 | x8 | x8 | x8 |[M:3/4] x6 | x6 |[M:4/4] x8 | x8 |[M:3/4] x6 |[M:4/4] x8 | %30
 x8 |[M:3/4] x6 | x6 | x6 | x6 |[M:6/4] x12 |[M:4/4] x8 |[M:3/4] x6 | x6 | %39
[M:9/8] (4:3:4GA.F z F2 D C_B,B,- |[M:6/4] B,^G, D4- D6- |[M:4/4] D8- | D8- | D8- | D2 z2 z4 | x8 | %46
 x8 | x8 | x8 | x8 |[M:3/4] x6 | x6 |[M:4/4] x8 | x8 | x8 | x8 | x8 | x8 | x8 | x8 |[M:3/4] x6 | %61
[M:4/4] x8 | x8 | x8 | x8 |[M:3/4] x6 |[M:6/4] x12 |[M:3/4] x6 |[M:4/4] x8 |[M:5/4] x10 | %70
[M:4/4] x8 | x8 | x8 | x8 | x8 | x8 | x8 |[M:3/4] x6 | x6 | x6 | x6 | x6 | x6 |[M:4/4] x8 | x8 | %85
 x8 | x8 | x8 |[M:3/4] x6 | x6 | x6 | x6 | x6 | x6 |[M:2/2] x8 | x8 | x8 | x8 |[M:3/4] x6 | x6 | %100
 x6 | x6 | x6 | x6 | x6 |[M:3/2] x12 |[M:2/2] x8 | x8 | x8 | x8 | x8 | x8 |[M:3/4] x6 |[M:2/2] x8 | %114
[M:3/2] x12 |[M:2/2] x8 | x8 | x8 | x8 | x8 | x8 | x8 | x8 | x8 | x8 | x8 |[M:3/1] x24 | %127
[M:6/2] x24 | x24 |[M:4/1] x32 |[M:3/1] x24 |[M:2/1] x16 | x16 | x16 |[M:4/4] x8 |[M:5/4] x10 | %136
[M:4/4] x8 | x8 |[M:3/2] x12 | x12 |[M:2/2] x8 | x8 | x8 | x8 | x8 | x8 |[M:3/4] x6 | x6 | x6 | %149
 x6 |[M:4/4] x8 | x8 |[M:6/4] x12 |[M:3/4] x6 |[M:4/4] x8 | x8 | x8 | x8 | x8 | x8 | x8 | x8 | %162
[M:6/4] x12 | x12 | x12 |[M:4/4] x8 | x8 | x8 | x8 |[M:3/4] x6 |[M:4/4] x8 |[M:6/4] x12 | %172
[M:4/4] x8 | x8 | x8 | x8 | x8 | x8 | x8 | x8 | x8 | x8 | x8 |[M:2/4] x4 | x4 | x4 | x4 | %187
[M:4/4] x8 |[M:3/4] x6 |[M:4/4] x8 | x8 |[M:6/4] x12 |[M:4/4] x8 | x8 | x8 |[M:6/4] x12 | x12 | %197
 x12 | x12 | x12 | x12 | x12 |[M:4/4] x8 | x8 |[M:6/4] x12 |[M:4/4] x8 | x8 |[M:6/4] x12 | %208
[M:4/4] x8 | x8 |[M:5/4] x10 |[M:6/4] x12 |[M:4/4] x8 | x8 | x8 |[M:3/4] x6 |[M:4/4] x8 | x8 | x8 | %219
 x8 | x8 |[M:5/4] x10 |[M:4/4] x8 | x8 | x8 |[M:5/4] x10 |[M:4/4] x8 | x8 | x8 |[M:3/4] x6 | x6 | %231
 x6 | x6 | x6 | x6 | x6 |[M:4/4] x8 | x8 | x8 | x8 |[M:2/4] x4 | x4 |[M:4/4] x8 | x8 |[M:5/4] x10 | %245
[M:4/4] x8 | x8 | x8 | x8 | x8 | x8 |[M:5/4] x10 |[M:6/4] x12 |[M:4/4] x8 | x8 | .E2 z2 z4 | x8 | %257
 x8 | x8 |] %259
V:4
 z8 | B2 E2 E4 | c2 c2 B4 | e2 e2 d2 c2 | d2 B2 G2 AB | A G2 A- ABAG- | G/A/B cc- c/B/A B2- | %7
w: |les,~ * was~|la�~ al les,~|la�~ al les,~ *|was~ halt,~ hauf~ da�~ du~|al * * * * * *||
 B2 A4 z2 | A2 DD D4 | B2 EE E4 | B2 cc B3 B | cc B2 c e2 c | Bcec- ce (3cec | %13
w: * nehmst!~|Ver schm�h~ die~ Welt,~|ver schm�h~ die~ Welt,~|schm�h~ Welt,~ ver schm�h~ *||* die~ Welt,~ * * * * * *|
 (3:2:2B2 A B2 G2 AB | A G2 A- ABAG- | GABA G>A B2 | AG- G/A/B- BA B2 |[M:6/4] B2 A4- A6- | %18
w: * * * da�~ du~ sie~|tau * * * * * *||* * * * send fach~ * *|be k�mmst!~ *|
[M:4/4] A8- | A8- | A4 A2 ^F2 | A2 EE E2 z2 | d2 A4 d2 | A4 c4- |[M:3/4] c2 G4- | G2 z2 z2 | %26
w: ||* Hier~ ist~|die~ D�m me rung:~|Wohl~ dem,~ wohl~|dem,~ *|* dem!~||
[M:4/4] z2 A4 A2 | A2 G2 E2 A2 |[M:3/4] B2 e2 d2- |[M:4/4] dedc- c/A/G/F/ FF- | F_E A6- | %31
w: Mensch,~ die~|fi gur~ der~ Welt~|ver ge *|* * * * * * * * het~ mit~|* der~ zeit.~|
[M:3/4] A2 z2 z2 | z A, _B>B B2 | z _B, B>B B2 | z B, c>c cc |[M:6/4] de d>d d2- d2 A2 A2 | %36
w: |* dann~ * viel,~|so~ viel,~ * *|was~ trozt'st~ du~ dann~ auf~|ih re~ Herr * keit?~ * * die~|
[M:4/4] A2 G2 E2 A2 |[M:3/4] B2 e2 d2- | de (3ced (3ece |[M:9/8] z2 d z3 z3 |[M:6/4] z12 | %41
w: fi gur~ der~ Welt~|ver ge *||||
[M:4/4] z8 | z8 | z8 | z8 | z8 | z4 G3 G | G2 G2 F2 G2 | G2 A2 B2 A2 | G2 E4 z2 | %50
w: |||||willst~ *|des wegs~ ins~ ew'|* ge~ Le *|ben~ gehn,~|
[M:3/4] z2 G2 G2- | GA ^FG GA |[M:4/4] ^F2 z2 F2 A2- | A2 z2 G2 F2- | FE F2 G3 E | F2 GE F3 E | %56
w: |* * * so~ la�~ die~|Welt~ und~ dich,~|* und~ dich~|* zur~ lin * *|* * ken~ Sei *|
 D2 [^CE]6- | [CE]2 z2 z4 | z2 e2 ^c2 c2- | c2 e2 ^c2 c2- |[M:3/4] c2 z2 z2 |[M:4/4] z8 | z8 | %63
w: te~ stehn!~||O~ S�n der,~|* o~ S�n der,~||||
 z2 e2 ^c2 c2- | c2 e2 ^c2 c2- |[M:3/4] c6 |[M:6/4] z6 A2 A3 A |[M:3/4] ^F2 A2 A2- | %68
w: o~ S�n der,~|* wohl~ d�chst~ fur||||
[M:4/4] AAAB A2 AA |[M:5/4] B2 ^c3 B A2 B2- |[M:4/4] B2 B2 _B4- | B4 z4 | z4 z2 G2 | B2 G2 dG d2- | %74
w: * Du~ w�rdst~ nichst~ B� ses,~ nichts~|B� * * * *|* ses~ tun!~||Dein~|be ster~ Freund,~ dein~ Leib,~|
 dBcd- d/e/d- d/c/B | A4 E4 | z EFE c2 c2 |[M:3/4] BE FE c2 | c2 BB c2 | B3 B cc | B3 B c2 | %81
w: ||der~ ist~ dein~ �rg ster~|feind,~ der~ ist~ dein~ �rg|ster~ feind,~ er~ bind't~|* und~ h�lt~ dich~|auf,~ er~ bind't~|
 BB dd ^cc | _e2 f2 d2 |[M:4/4] z4 z2 G2 | B2 G2 dG d2- | dBcd- d/e/d- d/c/B | AG [FA]2 [E^G]4- | %87
w: * und~ h�lt~ dich~ auf,~ und~|h�lt~ dich~ auf:~|dein~|be ster~ Freund,~ so~ gut~||* er's~ im meint!~|
 [EG]4 z4 |[M:3/4] z2 z2 E2 | B6 | B4 E2 | B3 B A^F | AB ^c4 | ^c2 B2 B2 |[M:2/2] A6 c2 | %95
w: |Der~|Rei||||che~ die ser~|Welt,~ was~|
 A2 G2 F2 E2 | D6 c2 | A2 G2 F2 E2 |[M:3/4] ^F6 | z6 | z6 | z2 z2 ^F2 | A3 B ^c2- | c2 d2 ^c2 | %104
w: hat~ er~ f�r~ Ge|winn,~ was~|hat~ er~ f�r~ Ge|winn,~||||die * Welt,~|* der~ Rei|
 B2 A2 ^G2 |[M:3/2] ^F8 z2 B2- |[M:2/2] BB B2 B2 A2 | cBAG ^F2 F2 | .E4 z4 | z8 | z8 | z4 z2 A2- | %112
w: che~ die ser~|Welt,~ Der|* von~ sei Reich tum~|ziehn?~ * * * * *|||||
[M:3/4] A2 E3 ^F |[M:2/2] G2 A2 B4 |[M:3/2] z2 A2 d4 z2 G2 |[M:2/2] c4 z4 | c4 A4 | F4 z4 | c4 A4 | %119
w: * * ten~|ist~ nicht~ g'nug,~|du~ mu�t,~ du~|mu�t,~|du~ mu�t~|auch,~|du~ mu�t~|
 F4 z4 | c4 A4 | F4 c4 | A4 F4 | c4 c4 | _B2 A4 D2 | E4 D4- |[M:3/1] D4 _B12 B4 B4- | %127
w: auch,~|du~ mu�t~|auch,~ du~|mu�t~ auch,~|du~ mu�t~|auch~ � ber|win den,~|* wo~ du~ willst~|
[M:6/2] B4 A8 G4 A8 | A4 _B8 c4 A8 |[M:4/1] A4 G12 F4 _E8 D4- |[M:3/1] D4 C12 D4 _E4- | %131
w: * ew' ge~ Ruh~|und~ ew' gen~ Frie|den~ fin * * *||
[M:2/1] E4 D8 C4- | C4 D12- | D4 z4 z8 |[M:4/4] z4 C2 F2 |[M:5/4] F2 E3 D CC c2 | %136
w: |* den!~|||Welt~ ist~ ne~ See,~ * *|
[M:4/4] c2 B2 A2 G2 | F G2 F D2 FG- |[M:3/2] GF D2 D2 F6- | F2 D6 _E2 F2- |[M:2/2] F4 D2 G2- | %141
w: * Schiff mann~ *|Geist,~ das~ * dein~ * *|* * * die~ Seel~||* * ist's,~|
 G6 c2- | c2 _B4 c2- | c6 c2- | c2 c6- | c2 .B6 |[M:3/4] z6 | A2 A4 | A2 e4 | d4 B2 | %150
w: * die~|* nach~ Hau||* se~|||Das~ �|ber lich||
[M:4/4] d2 e4 e2- | e2 d2 d4 |[M:6/4] c2 c4 B2 c2 d2 |[M:3/4] c2 B2 A2 |[M:4/4] G2 Ac A3 c | %155
w: te~ Licht,~ schaut~|* man,~ schaut~|man,~ schaut~ man~ in~ die|sem~ Le ben~|nicht~ an * * *|
 AG A2- A c2 _B | A4 G2 A2 | A2 z2 A2 _B2 | c2 A2 A2 A2 | G2 F2 G2 A2- | A2 A2 A2 G2 | A3 G F2 E2 | %162
w: ||* * ders,~|nicht~ an * ders,~|nicht~ an * ders,~|* wenn~ man~ schier~|ins~ * le~ sich~|
[M:6/4] D2 E2 EE F4 ED | .E6 z6 | z2 d2 d2- dd d4 |[M:4/4] B2 d2 d2 d2 | B2 G2- GA G2 | ^F4 G2 A2 | %168
w: be ge * * * * *|ben.~|Freund,~ * * * in~|ner~ Welt~ will~ lau|* Ro * * *||
 G2 ^F2 G4 |[M:3/4] A2 ^F4 |[M:4/4] ^F2 G2 A2 B2 |[M:6/4] ^c2 d4 .c6 |[M:4/4] A2 A2 A2 A2 | %173
w: |sen~ *||* * chen,~|den~ m�s sen~ z'vor~|
 A2 A2 A2 B2 | A2 AB A3 d | AG A2 A2 d2 | c2 B6- | B8- | B8- | B8- | B2 B6- | B8- | B2 z2 z4 | %183
w: all hier~ die~ Dor||* * * * g'nug|sam~ ste|||||||
[M:2/4] z2 z G | A2 z G | A2 z A | B2 z A |[M:4/4] B2 z B ^cBcc- |[M:3/4] cB ^cc c2- | %189
w: Auf,~|auf,~ auf,~|auf,~ auf,~|auf,~ auf,~|auf,~ auf,~ auf,~ auf,~ auf,~ auf~|* der~ Br�ut' gam~ k�mmt:~|
[M:4/4] cB^cc c3 B | ^c3 B cBcc |[M:6/4] ^c3 Bcc c6 |[M:4/4] z2 A2 G3 A | GA G2 z2 z A | %194
w: * * geht~ * nicht~ *|ihm~ * * * * *|nicht~ * ihm~ * ein,~|* Au *||
 GA G2 z AGA |[M:6/4] .G4 D2- D2 D4 | E2 F4 E4 E2 | F3 G A2- AG F2 E2- | E2 ^F4- F6- | F6 z6 | %200
w: * des~ Au * * des~|Au nicht~ * kann~|be rei * *|* * * * * * tet~|* sein.~ *||
 z2 A4 A2 A2 ^F2 | A2 E3 D ^F2 F2 ^C2 |[M:4/4] B,2 A2- ABAB | A3 B dBA^F- | %204
w: |* * * Mensch,~ * wenn~|dir~ auf~ der~ * Welt~ *|* * wird~ * Weil~ *|
[M:6/4] FA B2 B2 A3 A ^F2 |[M:4/4] A2 B2 ^F2 A2 | B2 e^c- cBA^F- |[M:6/4] FA B4- B6- |[M:4/4] B8- | %209
w: und~ * Zeit,~ * * * *|* * so~ kehr~|* nur~ * zu~ * Gott~ *|ins~ * Nun~ E||
 B2 z2 z4 |[M:5/4] z2 c2 d4 e2 |[M:6/4] d2 c2 A2 A2 A2 A2 |[M:4/4] G2 F2 A4- | A8- | A4 A4 | %215
w: |Die~ See le,~|wel che~ hier~ noch~ klei ner~|ist~ als~ klein,~|||
[M:3/4] A2 G2 (3:2:2A2 A |[M:4/4] AAed A3 B | AGAB A4- | A8- | A4 z4 | z8 |[M:5/4] ^F2 G4 F2 F2- | %222
w: in~ dem~ Him mel|reich~ der~ sch�n ste~ En *|* * gel~ * sein.~||||Die~ See le,~ weil~|
[M:4/4] F^F F2 A2 E2 | E2 G2 ^F2 E2- | E2 E2 E4 |[M:5/4] E2 E2 E2 G4 |[M:4/4] A2 ^F2 FF G2 | %227
w: * sie~ ist~ ge born~|zur~ E wig keit,~|* hat~ kei|ne~ wah re~ Ruh,~|* * kei ne~ wah|
 A2 ^F2 E2 E2 | D2 ^C2 C2 B,2- |[M:3/4] B,6- | B,6 | z6 | z2 AA GF | DF G2 AA | GF DF G2 | %235
w: re~ Ruh~ in~ Din|gen~ die ser~ Zeit,~||||* * * in~|Din * * gen~ *|* * die * ser~|
 AA GF DF |[M:4/4] G2 AA GFDF | G2 AA GF D2 | BBAG E2 BB | AGEG A3 B |[M:2/4] G4 | A4 | %242
w: Zeit,~ * kei ne~ wah re~|Ruh,~ * * kei ne~ wah re~|Ruh,~ * * kei ne~ wah|Ruh,~ * * * kei wah re~|Ruh,~ * * * kei re~|Ruh,~|Ruh,~|
[M:4/4] G2 ^F2 E4 | z2 ^F2 G4 |[M:5/4] ^F2 F3 F F2 A2 |[M:4/4] E2 E2 G3 ^F | D2 E4 ^F2 | ^G4 A4 | %248
w: Ruh,~ kei Ruh,~|die~ See|le,~ weil~ sie~ ist~ ge|born~ zur~ E *||keit.~ Drum~|
 A2 A2 ^G2 G2 | ^G2 A2 A2 A2 | ^G2 G2 G2 A2 |[M:5/4] ^G3 ^F E4 ^C2 |[M:6/4] E4 C2- C2 C2 C2 | %253
w: ist's~ ver wun der|lich,~ da�~ du~ die~|Welt~ so~ liebst,~ *|die~ * * so~|liebst~ und~ * aufs~ Ver|
[M:4/4] E2 E2 E2 C2 | E2 E2 E2 C2 | G8- | G8 | z8 | z8 |] %259
w: g�ng li che~ dich~|all zu sehr~ be|gibst.~||||
V:5
 x8 | x8 | x8 | x8 | x8 | x8 | x8 | x8 | x8 | x8 | x8 | x8 | x8 | x8 | x8 | x8 | x8 |[M:6/4] x12 | %18
w: ||||||||||||||||||
[M:4/4] x8 | x8 | x8 | x8 | x8 | x8 |[M:3/4] x6 | x6 |[M:4/4] x8 | x8 |[M:3/4] x6 |[M:4/4] x8 | %30
w: ||||||||||||
 x8 |[M:3/4] x6 | x6 | x6 | x6 |[M:6/4] x12 |[M:4/4] x8 |[M:3/4] x6 | x6 | %39
w: |||||||||
[M:9/8] (4:3:4de.c z c2 A GFF- |[M:6/4] F_E A4- A6- |[M:4/4] A8- | A8- | A8- | A2 z2 z4 | x8 | x8 | %47
w: * * * * * * het~ mit~|* der~ zeit.~ *|||||||
 x8 | x8 | x8 |[M:3/4] x6 | x6 |[M:4/4] x8 | x8 | x8 | x8 | x8 | x8 | x8 | x8 |[M:3/4] x6 | %61
w: ||||||||||||||
[M:4/4] x8 | x8 | x8 | x8 |[M:3/4] x6 |[M:6/4] x12 |[M:3/4] x6 |[M:4/4] x8 |[M:5/4] x10 | %70
w: |||||||||
[M:4/4] x8 | x8 | x8 | x8 | x8 | x8 | x8 |[M:3/4] x6 | x6 | x6 | x6 | x6 | x6 |[M:4/4] x8 | x8 | %85
w: |||||||||||||||
 x8 | x8 | x8 |[M:3/4] x6 | x6 | x6 | x6 | x6 | x6 |[M:2/2] x8 | x8 | x8 | x8 |[M:3/4] x6 | x6 | %100
w: |||||||||||||||
 x6 | x6 | x6 | x6 | x6 |[M:3/2] x12 |[M:2/2] x8 | x8 | x8 | x8 | x8 | x8 |[M:3/4] x6 |[M:2/2] x8 | %114
w: ||||||||||||||
[M:3/2] x12 |[M:2/2] x8 | x8 | x8 | x8 | x8 | x8 | x8 | x8 | x8 | x8 | x8 |[M:3/1] x24 | %127
w: |||||||||||||
[M:6/2] x24 | x24 |[M:4/1] x32 |[M:3/1] x24 |[M:2/1] x16 | x16 | x16 |[M:4/4] x8 |[M:5/4] x10 | %136
w: |||||||||
[M:4/4] x8 | x8 |[M:3/2] x12 | x12 |[M:2/2] x8 | x8 | x8 | x8 | x8 | x8 |[M:3/4] x6 | x6 | x6 | %149
w: |||||||||||||
 x6 |[M:4/4] x8 | x8 |[M:6/4] x12 |[M:3/4] x6 |[M:4/4] x8 | x8 | x8 | x8 | x8 | x8 | x8 | x8 | %162
w: |||||||||||||
[M:6/4] x12 | x12 | x12 |[M:4/4] x8 | x8 | x8 | x8 |[M:3/4] x6 |[M:4/4] x8 |[M:6/4] x12 | %172
w: ||||||||||
[M:4/4] x8 | x8 | x8 | x8 | x8 | x8 | x8 | x8 | x8 | x8 | x8 |[M:2/4] x4 | x4 | x4 | x4 | %187
w: |||||||||||||||
[M:4/4] x8 |[M:3/4] x6 |[M:4/4] x8 | x8 |[M:6/4] x12 |[M:4/4] x8 | x8 | x8 |[M:6/4] x12 | x12 | %197
w: ||||||||||
 x12 | x12 | x12 | x12 | x12 |[M:4/4] x8 | x8 |[M:6/4] x12 |[M:4/4] x8 | x8 |[M:6/4] x12 | %208
w: |||||||||||
[M:4/4] x8 | x8 |[M:5/4] x10 |[M:6/4] x12 |[M:4/4] x8 | x8 | x8 |[M:3/4] x6 |[M:4/4] x8 | x8 | x8 | %219
w: |||||||||||
 x8 | x8 |[M:5/4] x10 |[M:4/4] x8 | x8 | x8 |[M:5/4] x10 |[M:4/4] x8 | x8 | x8 |[M:3/4] x6 | x6 | %231
w: ||||||||||||
 x6 | x6 | x6 | x6 | x6 |[M:4/4] x8 | x8 | x8 | x8 |[M:2/4] x4 | x4 |[M:4/4] x8 | x8 |[M:5/4] x10 | %245
w: ||||||||||||||
[M:4/4] x8 | x8 | x8 | x8 | x8 | x8 |[M:5/4] x10 |[M:6/4] x12 |[M:4/4] x8 | x8 | x8 | x8 | x8 | %258
w: |||||||||||||
 x8 |] %259
w: |
V:6
 z8 | z4 C,2 A,,2 | A,,4 G,,^F,, E,,2- | E,,8- | E,,4 C,2 D,E, | D, C,2 D,- D,E,D,C,- | %6
w: |les,~ *|la�~ les,~ * *||* hauf~ da�~ du~|al * * * * * *|
 C,/D,/E, F,F,- F,/E,/D, E,2- | E,2 z2 z4 | z4 C,2 G,,G,, | G,,4 B,,2 ^F,,F,, | ^F,,4 A,,2 E,,E,, | %11
w: * * * * * * * * les~||Welt,~ * *|ver Welt,~ * *|ver Welt,~ * ver|
 E,,4 A,,2 E,,E,, | E,,8- | E,,4 C,2 D,E, | D, C,2 D,- D,E,D,C,- | C,D,E,D, C,>D, E,2 | %16
w: schm�h~ * * *||* da�~ du~ sie~|tau * * * * * *||
 D,C,- C,/D,/E, E,D, E,2- |[M:6/4] E,6 z6 |[M:4/4] z8 | A,,2 F,2 F,4 | F,F, G,,6- | G,,6 z2 | %22
w: * * * * * * send fach~||||||
 F,2 C,4 F,2 | C,4 A,,4- |[M:3/4] A,,2 C,4- | C,2 z2 z2 |[M:4/4] z2 D,4 D,2 | D,2 C,2 A,,2 D,2 | %28
w: Wohl~ dem,~ wohl~|dem,~ wohl~|* dem!~||Mensch,~ die~|fi gur~ der~ Welt~|
[M:3/4] E,2 A,2 G,2- |[M:4/4] G,A,G,F,- F,/D,/C,/_B,,/ B,,B,,- | B,,^G,, D,6- |[M:3/4] D,2 z2 z2 | %32
w: ver ge *|* * * * * * * * het~ mit~|* der~ zeit.~||
 z A,, _B,>B, B,2 | z _B,, B,>B, B,2 | z B,, C>C CC |[M:6/4] B,A,DD D,2- D,2 D,2 D,2 | %36
w: Was~ trotz'st~ du~ dann,~|was~ trotz'st~ du~ dann,~|was~ trotz'st~ du~ dann~ auf~|ih re~ Herr * keit?~ * Mensch,~ die~|
[M:4/4] D,2 C,2 A,,2 D,2 |[M:3/4] E,2 A,2 G,2- | G,A, (3F,A,G, (3A,F,A, |[M:9/8] z2 G, z3 z3 | %40
w: fi gur~ der~ Welt~|ver ge *|||
[M:6/4] z12 |[M:4/4] z8 | z8 | z8 | z8 | z8 | z4 C,3 C, | C,2 _B,,2 A,,2 G,,G,, | G,,3 G,, C,4 | %49
w: ||||||Mann~ du~|willst~ gra des wegs~ *|ins~ * ge~|
 C,2 G,,4 z2 |[M:3/4] z2 C,2 C,2- | C,E, B,,B,, C,E, |[M:4/4] B,,2 z2 E,2 E,2- | E,2 z2 E,2 D,2- | %54
w: ben~ gehn,~|so~ la�~|* die~ Welt,~ so~ la�~ die~|Welt~ und~ dich,~|* und~ dich~|
 D,E, D,2 C,3 E, | D,2 E,D, C,2 B,,2- | B,,2 A,,6- | A,,2 z2 z4 | z2 E,2 A,,2 A,,2- | %59
w: * zur~ lin * *|* * ken~ Sei *|* stehn!~||O~ S�n der,~|
 A,,2 E,2 A,,2 A,,2- |[M:3/4] A,,2 z2 z2 |[M:4/4] z8 | z8 | z2 E,2 A,,2 A,,2- | %64
w: * o~ S�n der!~||||O~ S�n der,~|
 A,,2 E,2 A,,2 A,,2- |[M:3/4] A,,6 |[M:6/4] z6 ^F,,2 F,,3 F,, |[M:3/4] B,,2 B,,2 ^F,,2- | %68
w: * o~ S�n der!~||Und~ dann~ die~|E wig keit:~|
[M:4/4] F,,^F,F,E, F,2 F,F, |[M:5/4] E,2 D,3 E, ^F,2 ^G,2 |[M:4/4] ^F,2 F,2 [^F,,^C,]4- | %71
w: * Du~ w�rdst~ nichst~ B� ses,~ nichts~|B� * * * *|* ses~ tun!~|
 [F,,C,]4 z4 | z8 | z8 | z8 | z4 z E,F,E, | C2 C2 B,B,,C,B,, |[M:3/4] G,2 G,2 ^F,^F,, | %78
w: |||||* ist~ �rg * ster~ *|feind,~ ist~ �rg *|
 G,,^F,, D,2 D,2 | ^C,C, D,2 C,2- | C,^C, D,2 C,C, | E,2 _E,E, ^F,2 | F,F, ^G,G, =G,2 |[M:4/4] z8 | %84
w: ster~ * feind,~ bind't~|* * * h�lt~|* * * bind't~ *|* h�lt~ dich~ auf,~|h�lt~ * dich~ * auf:~||
 z8 | z8 | z8 | z8 |[M:3/4] z2 z2 B,,2 | E,4 A,2 | E,4 B,,2 | E,4 A,2 | E,2 A,2 G,2 | G,2 E,2 D,2 | %94
w: ||||Der~|Rei *|che,~ der~|Rei *||che~ die ser~|
[M:2/2] A,,8 | z8 | z2 A,2 F,4 | E,2 D,4 C,2 |[M:3/4] D,6 | z6 | z2 z2 B,,2 | D,3 E, ^F,2- | %102
w: Welt,~|||hat~ er~ Ge|winn,~|||* * der~|
 F,G, ^F,3 G, | ^F,3 E, D,2 | ^C,2 B,,2 A,,2 |[M:3/2] B,,8 z2 E,2- |[M:2/2] E,E, E,2 E,2 D,2 | %107
w: ||che~ die ser~|Welt,~ da�~|* er~ mu�~ mit~ Der|
 E,G,^F,E, E,2 D,2 | .E,4 z4 | z8 | z8 | z4 z2 F,2- |[M:3/4] F,2 C,3 D, |[M:2/2] E,2 C,2 G,4 | %114
w: lust~ von~ sei nem~ Reich tum~|ziehn?~|||Freund,~|* strei ten~|ist~ nicht~ g'nug,~|
[M:3/2] z2 C,2 G,4 z2 D,2 |[M:2/2] A,4 z4 | F,,4 A,,4 | C,4 z4 | F,,4 A,,4 | C,4 z4 | F,,4 A,,4 | %121
w: du~ mu�t,~ du~|mu�t,~|du~ mu�t~|auch,~|du~ mu�t~|auch,~|du~ mu�t~|
 C,4 F,,4 | A,,4 C,4 | F,4 C,4 | D,2 F,4 G,2 | E,4 ^F,4- |[M:3/1] F,4 G,8 G,8 G,4- | %127
w: auch,~ du~|mu�t~ auch,~|du~ mu�t~|auch~ � ber|win den,~|* wo~ * willst~|
[M:6/2] G,4 G,8 G,4 D,8 | D,4 G,8 G,4 D,6 _E,2 |[M:4/1] F,4 _E,12 D,4 C,8 _B,,4- | %130
w: * ew' ge~ Ruh~|und~ ew' gen~ Frie *|den~ fin * * *|
[M:3/1] B,,4 ^G,,4- G,,12 _B,,4- |[M:2/1] B,,4 F,,12- | F,,4 G,,12- | G,,4 z4 z8 | %134
w: ||* den!~||
[M:4/4] z4 F,,2 C,C, |[M:5/4] C,3 _B,, A,,2 F,,F,, F,2 |[M:4/4] F,2 D,2 C,2 _B,,2 | %137
w: Die~ Welt~ *|ist~ * * See,~ der~ Schiff|mann~ Got tes~ Geist,~|
 _B,, C,2 B,, G,,2 B,,C,- |[M:3/2] C,_B,, G,,2 F,,2 B,,6 | G,,2 F,,2 G,,2 _B,,2 G,,2 F,,2 | %140
w: das~ Schiff~ * * dein~ Leib,~|* * * die~ Seel~||
[M:2/2] G,,2 _B,,2 A,,2 G,,2- | G,,6 F,,2- | F,,2 F,,4 C,2- | C,6 _B,,2- | B,,2 ^G,,4 =G,,2- | %145
w: * * * ist's,~|* die~|* nach~ Hau|* se~|* reist.~ *|
 G,,8 |[M:3/4] z6 | A,2 A,4 | A,2 G,4- | G,2 E,4- |[M:4/4] E,2 A,4 D,2- | D,2 A,2 D,4 | %152
w: ||Das~ �|ber lich||* Licht,~ schaut~|* man,~ schaut~|
[M:6/4] A,2 D,4 D,2 D,2 D,2 |[M:3/4] D,2 C,2 C,2 |[M:4/4] A,,2 D,F, D,3 F, | D,C, D,2- D, F,2 _E, | %156
w: man,~ schaut~ man~ in~ die|sem~ Le ben~|nicht~ an * * *||
 D,4 C,2 D,2 | D,2 z2 E,2 G,2 | A,2 F,2 E,2 D,2- | D,2 D,2 C,2 D,2- | D,2 C,2 _B,,4 | E,2 A,,6- | %162
w: |ders,~ als~ wenn~|man~ schier~ ins~ Dunk|* sich~ be ge|* ben,~ sich~|ge *|
[M:6/4] A,,2 A,,4- A,,6- | A,,6 z6 | z12 |[M:4/4] z2 D,2 D,4 | D,2 E,2- E,^F, E,2 | D,4 E,2 ^F,2 | %168
w: |||Welt~ will~|ter~ Ro * * *||
 E,2 D,2 E,4 |[M:3/4] ^F,2 D,4- |[M:4/4] D,4 ^C,2 D,2- |[M:6/4] D,6 A,,2 A,,2 A,,2 | %172
w: |sen~ bre||* chen,~ * *|
[M:4/4] A,,2 A,,2 F,,2 A,,2- | A,,A,, A,,2 A,,2 A,,2 | G,,2 A,,4 A,,2- | A,,2 A,,2- A,,G,, A,,2 | %176
w: den~ m�s sen~ z'vor~|* * hier~ die~ Dor||* * * * g'nug|
 A,,2 F,4 E,2 | E,2 F,4 E,E, | F,2 E,2- E, E,2 F, | E,F, E,2 E,2 A,2- | A,G, F,2 E,2 D,2- | %181
w: sam~ ste *||||* * chen.~ * *|
 D,2 E,6- | E,2 z2 z4 |[M:2/4] z2 z A,, | D,2 z A,, | D,2 z B,, | E,2 z B,, | %187
w: ||Auf,~|auf,~ auf,~|auf,~ auf,~|auf,~ auf,~|
[M:4/4] E,2 z ^C, ^F,C,F,F,- |[M:3/4] F,^C, ^F,F, F,2- |[M:4/4] F,6 z2 | ^F,2 _E,2 ^C,2 ^G,,2 | %191
w: auf,~ auf,~ auf,~ auf,~ auf,~ auf~|* der~ Br�ut' gam~ k�mmt,~||auf,~ * auf,~ Br�ut'|
[M:6/4] ^C,2 ^F,4- F,6 |[M:4/4] z2 ^C,2 B,,3 C, | B,,^C, B,,2 z2 z C, | B,,^C, B,,2 z C,B,,C, | %195
w: k�mmt,~ * *|wo~ man~ des~|Au gen blicks,~ des~|Au gen blicks,~ des~ Au gen|
[M:6/4] .B,,4 G,,2- G,,2 G,,4 | G,,2 D,4 A,,4 A,,2 | D,3 C,D,C, D,3 C, B,,2 | %198
w: blicks~ nicht~ * kann~|be rei * *|* * * * * * tet~|
 A,,2 [D,,D,]4- [D,,D,]6- | [D,,D,]6 z6 | z12 | z6 D,4 D,2 |[M:4/4] D,2 D,2 D,2 A,,2- | %203
w: * sein.~ *|||lang~ Weil~|und~ Zeit~ * *|
 A,,B,, D,2 D,2 D,2 |[M:6/4] D,2 A,,4 z6 |[M:4/4] z4 A,,2 A,,2- | A,,A,, A,,2 A,,2 E,2 | %207
w: ||ins~ Nun~|* * E * *|
[M:6/4] A,,2 A,,2 A,,2 E,6 |[M:4/4] E,2 [A,,E,]6- | [A,,E,]2 z2 z4 |[M:5/4] z4 F,,6- | %211
w: * keit.~ * *|||See|
[M:6/4] F,,12- |[M:4/4] F,,8- | F,,4 z4 | z4 D,4- |[M:3/4] D,6- |[M:4/4] D,8- | D,8- | D,8- | %219
w: |||wird~|||||
 D,4 z4 | z8 |[M:5/4] A,,2 E,4 E,2 E,2- |[M:4/4] E,E, E,2 D,2 E,2 | E,2 A,,2 E,2 E,2- | %224
w: ||Die~ See le,~ weil~|* sie~ ist~ ge born~|zur~ E wig keit,~|
 E,2 E,2 E,4 |[M:5/4] D,2 C,2 E,2 B,,4 |[M:4/4] A,,2 B,,2 B,,B,, B,,2 | A,,2 B,,2 A,,2 G,,2 | %228
w: * hat~ kei|ne~ wah re~ Ruh,~|* * kei ne~ wah|re~ Ruh~ in~ Din|
 G,,2 ^F,,2 F,,2 E,,2- |[M:3/4] E,,6- | E,,6 | z6 | z6 | z2 E,E, D,C, | A,,C, D,2 E,E, | %235
w: gen~ die ser~ Zeit,~|||||* * kei ne~|wah re~ Ruh,~ * *|
 D,C, A,,C, D,2 |[M:4/4] D,C,A,,C, D,4- | D,2 z2 z4 | z8 | z4 z2 ^F,F, |[M:2/4] E,D, B,,2- | %241
w: kei ne~ wah re~ Ruh,~|* * kei ne~ wah|||* in~|Din * *|
 B,,B,, C,2- |[M:4/4] C,C,D,B,, E,4 | z2 A,,2 E,4 |[M:5/4] E,2 E,3 E, E,2 D,2 | %245
w: |* * ser~ * Zeit,~|die~ See|le,~ weil~ sie~ ist~ ge|
[M:4/4] E,2 E,2 E,3 D, | C,2 B,,2 A,,4 | E,,4 E,4 | E,2 ^C,2 E,2 E,2 | E,2 E,2 E,2 ^C,2 | %250
w: born~ zur~ E *||keit.~ Drum~|ist's~ ver wun der|lich,~ da�~ du~ die~|
 E,2 E,2 E,2 ^C,2 |[M:5/4] E,3 ^C, E,4 E,2 |[M:6/4] E,,4 F,,2- F,,2 F,,2 F,,2 | %253
w: Welt~ so~ liebst,~ die~|Welt~ * * so~|liebst~ und~ * aufs~ Ver|
[M:4/4] C,2 C,2 F,,2 F,,2 | C,2 C,2 F,,2 F,,2 | C,8- | C,8 | z8 | z8 |] %259
w: g�ng li che~ dich~|all zu sehr~ be|gibst.~||||
V:7
 x8 | x8 | x8 | x8 | x8 | x8 | x8 | x8 | x8 | x8 | x8 | x8 | x8 | x8 | x8 | x8 | x8 |[M:6/4] x12 | %18
w: ||||||||||||||||||
[M:4/4] x8 | x8 | x8 | x8 | x8 | x8 |[M:3/4] x6 | x6 |[M:4/4] x8 | x8 |[M:3/4] x6 |[M:4/4] x8 | %30
w: ||||||||||||
 x8 |[M:3/4] x6 | x6 | x6 | x6 |[M:6/4] x12 |[M:4/4] x8 |[M:3/4] x6 | x6 | %39
w: |||||||||
[M:9/8] (4:3:4G,A,.F, z F,2 D, C,_B,,B,,- |[M:6/4] B,,^G,, D,4- D,6- |[M:4/4] D,8- | D,8- | D,8- | %44
w: * * * * * * het~ mit~|* der~ zeit.~ *||||
 D,2 z2 z4 | x8 | x8 | x8 | x8 | x8 |[M:3/4] x6 | x6 |[M:4/4] x8 | x8 | x8 | x8 | x8 | x8 | x8 | %59
w: |||||||||||||||
 x8 |[M:3/4] x6 |[M:4/4] x8 | x8 | x8 | x8 |[M:3/4] x6 |[M:6/4] x12 |[M:3/4] x6 |[M:4/4] x8 | %69
w: ||||||||||
[M:5/4] x10 |[M:4/4] x8 | x8 | x8 | x8 | x8 | x8 | x8 |[M:3/4] x6 | x6 | x6 | x6 | x6 | x6 | %83
w: ||||||||||||||
[M:4/4] x8 | x8 | x8 | x8 | x8 |[M:3/4] x6 | x6 | x6 | x6 | x6 | x6 |[M:2/2] x8 | x8 | x8 | x8 | %98
w: |||||||||||||||
[M:3/4] x6 | x6 | x6 | x6 | x6 | x6 | x6 |[M:3/2] x12 |[M:2/2] x8 | x8 | x8 | x8 | x8 | x8 | %112
w: ||||||||||||||
[M:3/4] x6 |[M:2/2] x8 |[M:3/2] x12 |[M:2/2] x8 | x8 | x8 | x8 | x8 | x8 | x8 | x8 | x8 | x8 | x8 | %126
w: ||||||||||||||
[M:3/1] x24 |[M:6/2] x24 | x24 |[M:4/1] x32 |[M:3/1] x24 |[M:2/1] x16 | x16 | x16 |[M:4/4] x8 | %135
w: |||||||||
[M:5/4] x10 |[M:4/4] x8 | x8 |[M:3/2] x12 | x12 |[M:2/2] x8 | x8 | x8 | x8 | x8 | x8 |[M:3/4] x6 | %147
w: ||||||||||||
 x6 | x6 | x6 |[M:4/4] x8 | x8 |[M:6/4] x12 |[M:3/4] x6 |[M:4/4] x8 | x8 | x8 | x8 | x8 | x8 | x8 | %161
w: ||||||||||||||
 x8 |[M:6/4] x12 | x12 | x12 |[M:4/4] x8 | x8 | x8 | x8 |[M:3/4] x6 |[M:4/4] x8 |[M:6/4] x12 | %172
w: |||||||||||
[M:4/4] x8 | x8 | x8 | x8 | x8 | x8 | x8 | x8 | x8 | x8 | x8 |[M:2/4] x4 | x4 | x4 | x4 | %187
w: |||||||||||||||
[M:4/4] x8 |[M:3/4] x6 |[M:4/4] x8 | x8 |[M:6/4] x12 |[M:4/4] x8 | x8 | x8 |[M:6/4] x12 | x12 | %197
w: ||||||||||
 x12 | x12 | x12 | x12 | x12 |[M:4/4] x8 | x8 |[M:6/4] x12 |[M:4/4] x8 | x8 |[M:6/4] x12 | %208
w: |||||||||||
[M:4/4] x8 | x8 |[M:5/4] x10 |[M:6/4] x12 |[M:4/4] x8 | x8 | x8 |[M:3/4] x6 |[M:4/4] x8 | x8 | x8 | %219
w: |||||||||||
 x8 | x8 |[M:5/4] x10 |[M:4/4] x8 | x8 | x8 |[M:5/4] x10 |[M:4/4] x8 | x8 | x8 |[M:3/4] x6 | x6 | %231
w: ||||||||||||
 x6 | x6 | x6 | x6 | x6 |[M:4/4] x8 | x8 | x8 | x8 |[M:2/4] x4 | x4 |[M:4/4] x8 | x8 |[M:5/4] x10 | %245
w: ||||||||||||||
[M:4/4] x8 | x8 | x8 | x8 | x8 | x8 |[M:5/4] x10 |[M:6/4] x12 |[M:4/4] x8 | x8 | x8 | x8 | x8 | %258
w: |||||||||||||
 x8 |] %259
w: |

